vectors/pinterest/pinterest.svg

<svg xmlns="http://www.w3.org/2000/svg" viewBox="0 0 256 256"><path d="M0 128.002c0 52.414 31.518 97.442 76.619 117.239-.36-8.938-.064-19.668 2.228-29.393 2.461-10.391 16.47-69.748 16.47-69.748s-4.089-8.173-4.089-20.252c0-18.969 10.994-33.136 24.686-33.136 11.643 0 17.268 8.745 17.268 19.217 0 11.704-7.465 29.211-11.304 45.426-3.207 13.578 6.808 24.653 20.203 24.653 24.252 0 40.586-31.149 40.586-68.055 0-28.054-18.895-49.052-53.262-49.052-38.828 0-63.017 28.956-63.017 61.3 0 11.152 3.288 19.016 8.438 25.106 2.368 2.797 2.697 3.922 1.84 7.134-.614 2.355-2.024 8.025-2.608 10.272-.852 3.242-3.479 4.401-6.409 3.204-17.884-7.301-26.213-26.886-26.213-48.902 0-36.361 30.666-79.961 91.482-79.961 48.87 0 81.035 35.364 81.035 73.325 0 50.213-27.916 87.726-69.066 87.726-13.819 0-26.818-7.47-31.271-15.955 0 0-7.431 29.492-9.005 35.187-2.714 9.869-8.026 19.733-12.883 27.421a127.897 127.897 0 0036.277 5.249c70.684 0 127.996-57.309 127.996-128.005C256.001 57.309 198.689 0 128.005 0 57.314 0 0 57.309 0 128.002z" fill="#CB1F27"/></svg>

<svg version="1.1" xmlns="http://www.w3.org/2000/svg" xmlns:xlink="http://www.w3.org/1999/xlink" viewBox="0 0 256 256">
    <g>
        <path d="M0,128.002 C0,180.416 31.518,225.444 76.619,245.241 C76.259,236.303 76.555,225.573 78.847,215.848 C81.308,205.457 95.317,146.1 95.317,146.1 C95.317,146.1 91.228,137.927 91.228,125.848 C91.228,106.879 102.222,92.712 115.914,92.712 C127.557,92.712 133.182,101.457 133.182,111.929 C133.182,123.633 125.717,141.14 121.878,157.355 C118.671,170.933 128.686,182.008 142.081,182.008 C166.333,182.008 182.667,150.859 182.667,113.953 C182.667,85.899 163.772,64.901 129.405,64.901 C90.577,64.901 66.388,93.857 66.388,126.201 C66.388,137.353 69.676,145.217 74.826,151.307 C77.194,154.104 77.523,155.229 76.666,158.441 C76.052,160.796 74.642,166.466 74.058,168.713 C73.206,171.955 70.579,173.114 67.649,171.917 C49.765,164.616 41.436,145.031 41.436,123.015 C41.436,86.654 72.102,43.054 132.918,43.054 C181.788,43.054 213.953,78.418 213.953,116.379 C213.953,166.592 186.037,204.105 144.887,204.105 C131.068,204.105 118.069,196.635 113.616,188.15 C113.616,188.15 106.185,217.642 104.611,223.337 C101.897,233.206 96.585,243.07 91.728,250.758 C103.24,254.156 115.401,256.007 128.005,256.007 C198.689,256.007 256.001,198.698 256.001,128.002 C256.001,57.309 198.689,0 128.005,0 C57.314,0 0,57.309 0,128.002 Z" fill="#CB1F27" />
    </g>
</svg>
